packages/foundations/assets/icons/functional/images/transportation/train.svg

<svg xmlns="http://www.w3.org/2000/svg" width="32" height="32" fill="none"><path fill="#1A1C1F" fill-rule="evenodd" d="M13.227 2.083c-2.383.32-4.003 1.342-5.36 3.381-.955 1.435-1.581 3.239-1.732 4.989-.139 1.62-.157 5.886-.029 7.12.19 1.834.422 3.046 1.048 5.467.539 2.086.749 2.632 1.358 3.529.72 1.06 1.271 1.585 2.071 1.972l.423.205.004.254a.97.97 0 0 0 .484.84l.258.16h8.488l.222-.119c.348-.186.599-.643.533-.972-.028-.14-.01-.157.315-.295.772-.328 1.453-.949 2.096-1.909.716-1.069.937-1.663 1.575-4.225.676-2.715.89-4.065.989-6.255.049-1.079-.017-4.757-.104-5.779-.248-2.914-1.843-5.881-3.898-7.253-.722-.482-1.472-.788-2.475-1.011-.507-.113-.663-.12-3.226-.132-1.482-.008-2.85.007-3.04.033m5.182 1.971c1.831.174 2.927.844 4 2.447.61.912.954 1.674 1.216 2.696.223.866.259 1.304.325 3.94.08 3.175-.023 4.879-.405 6.73-.225 1.089-.122.947-1.079 1.488-.461.262-1.335.783-1.941 1.158s-1.247.731-1.423.791c-.529.178-1.459.233-3.369.199-1.735-.031-2.489-.099-2.962-.267-.119-.042-.683-.364-1.254-.715-.57-.351-1.446-.87-1.947-1.153l-.91-.516-.169-.839c-.385-1.909-.519-3.62-.466-5.96.081-3.645.14-4.272.511-5.413a9.2 9.2 0 0 1 1.617-2.892c.812-.956 1.987-1.542 3.384-1.69.602-.064 4.21-.067 4.872-.004m-4.07 2.054c-2.247.306-3.791 1.356-4.175 2.837-.156.601-.084 1.463.258 3.076.151.713.263.989.587 1.442.498.699 1.083 1.005 2.471 1.297l.947.198 1.44.001c1.499.001 1.798-.026 2.986-.269.849-.174 1.395-.438 1.854-.896.576-.576.766-1.055 1.031-2.594.187-1.083.224-1.908.105-2.321-.157-.544-.387-.905-.856-1.348-.852-.805-1.94-1.249-3.546-1.448-.613-.076-2.47-.061-3.102.025m3.306 2.024c.84.141 1.483.401 1.88.759.421.38.45.614.234 1.938-.179 1.097-.248 1.323-.478 1.552-.22.221-.365.27-1.228.414-1.56.262-2.298.267-3.866.027-1.104-.169-1.236-.209-1.465-.437-.217-.217-.254-.322-.398-1.105-.241-1.311-.277-1.619-.216-1.846.179-.665 1.261-1.212 2.719-1.376.618-.07 2.21-.028 2.818.074m-6.367 8.928c-.397.181-.665.655-.582 1.033.089.406.997 3.121 1.084 3.24.359.496 1.064.543 1.505.102.211-.211.354-.636.288-.859-.02-.067-.252-.789-.515-1.603-.338-1.045-.52-1.529-.619-1.647-.171-.203-.506-.364-.759-.364-.103 0-.284.044-.402.098m8.467.042c-.317.156-.411.338-.801 1.548-.698 2.164-.673 2.066-.594 2.347.224.802 1.276 1.002 1.765.336.149-.203 1.067-3.078 1.074-3.361a.98.98 0 0 0-.473-.831c-.262-.153-.703-.171-.971-.039m-9.158 7.21c.586.366 1.186.718 1.333.783.702.309 1.555.394 3.947.395 1.835 0 3.092-.065 3.587-.187.515-.126.863-.304 2.066-1.055.587-.366 1.075-.644 1.084-.618.034.093-.163.663-.374 1.084-.334.664-.849 1.421-1.152 1.693a2.2 2.2 0 0 1-1.012.529c-.161.034-1.681.048-4.199.039l-3.947-.015-.36-.171a3.1 3.1 0 0 1-.662-.453c-.499-.468-1.224-1.656-1.425-2.333-.105-.35-.109-.45-.02-.396.037.021.547.339 1.134.705"/></svg>

<svg width="32" height="32" viewBox="0 0 32 32" fill="none" xmlns="http://www.w3.org/2000/svg"><path d="M13.227 2.083 C 10.844 2.403,9.224 3.425,7.867 5.464 C 6.912 6.899,6.286 8.703,6.135 10.453 C 5.996 12.073,5.978 16.339,6.106 17.573 C 6.296 19.407,6.528 20.619,7.154 23.040 C 7.693 25.126,7.903 25.672,8.512 26.569 C 9.232 27.629,9.783 28.154,10.583 28.541 L 11.006 28.746 11.010 29.000 C 11.016 29.358,11.182 29.646,11.494 29.840 L 11.752 30.000 15.996 30.000 L 20.240 30.000 20.462 29.881 C 20.810 29.695,21.061 29.238,20.995 28.909 C 20.967 28.769,20.985 28.752,21.310 28.614 C 22.082 28.286,22.763 27.665,23.406 26.705 C 24.122 25.636,24.343 25.042,24.981 22.480 C 25.657 19.765,25.871 18.415,25.970 16.225 C 26.019 15.146,25.953 11.468,25.866 10.446 C 25.618 7.532,24.023 4.565,21.968 3.193 C 21.246 2.711,20.496 2.405,19.493 2.182 C 18.986 2.069,18.830 2.062,16.267 2.050 C 14.785 2.042,13.417 2.057,13.227 2.083 M18.409 4.054 C 20.240 4.228,21.336 4.898,22.409 6.501 C 23.019 7.413,23.363 8.175,23.625 9.197 C 23.848 10.063,23.884 10.501,23.950 13.137 C 24.030 16.312,23.927 18.016,23.545 19.867 C 23.320 20.956,23.423 20.814,22.466 21.355 C 22.005 21.617,21.131 22.138,20.525 22.513 C 19.919 22.888,19.278 23.244,19.102 23.304 C 18.573 23.482,17.643 23.537,15.733 23.503 C 13.998 23.472,13.244 23.404,12.771 23.236 C 12.652 23.194,12.088 22.872,11.517 22.521 C 10.947 22.170,10.071 21.651,9.570 21.368 L 8.660 20.852 8.491 20.013 C 8.106 18.104,7.972 16.393,8.025 14.053 C 8.106 10.408,8.165 9.781,8.536 8.640 C 8.855 7.656,9.479 6.541,10.153 5.748 C 10.965 4.792,12.140 4.206,13.537 4.058 C 14.139 3.994,17.747 3.991,18.409 4.054 M14.339 6.108 C 12.092 6.414,10.548 7.464,10.164 8.945 C 10.008 9.546,10.080 10.408,10.422 12.021 C 10.573 12.734,10.685 13.010,11.009 13.463 C 11.507 14.162,12.092 14.468,13.480 14.760 L 14.427 14.958 15.867 14.959 C 17.366 14.960,17.665 14.933,18.853 14.690 C 19.702 14.516,20.248 14.252,20.707 13.794 C 21.283 13.218,21.473 12.739,21.738 11.200 C 21.925 10.117,21.962 9.292,21.843 8.879 C 21.686 8.335,21.456 7.974,20.987 7.531 C 20.135 6.726,19.047 6.282,17.441 6.083 C 16.828 6.007,14.971 6.022,14.339 6.108 M17.645 8.132 C 18.485 8.273,19.128 8.533,19.525 8.891 C 19.946 9.271,19.975 9.505,19.759 10.829 C 19.580 11.926,19.511 12.152,19.281 12.381 C 19.061 12.602,18.916 12.651,18.053 12.795 C 16.493 13.057,15.755 13.062,14.187 12.822 C 13.083 12.653,12.951 12.613,12.722 12.385 C 12.505 12.168,12.468 12.063,12.324 11.280 C 12.083 9.969,12.047 9.661,12.108 9.434 C 12.287 8.769,13.369 8.222,14.827 8.058 C 15.445 7.988,17.037 8.030,17.645 8.132 M11.278 17.060 C 10.881 17.241,10.613 17.715,10.696 18.093 C 10.785 18.499,11.693 21.214,11.780 21.333 C 12.139 21.829,12.844 21.876,13.285 21.435 C 13.496 21.224,13.639 20.799,13.573 20.576 C 13.553 20.509,13.321 19.787,13.058 18.973 C 12.720 17.928,12.538 17.444,12.439 17.326 C 12.268 17.123,11.933 16.962,11.680 16.962 C 11.577 16.962,11.396 17.006,11.278 17.060 M19.745 17.102 C 19.428 17.258,19.334 17.440,18.944 18.650 C 18.246 20.814,18.271 20.716,18.350 20.997 C 18.574 21.799,19.626 21.999,20.115 21.333 C 20.264 21.130,21.182 18.255,21.189 17.972 C 21.196 17.649,21.002 17.309,20.716 17.141 C 20.454 16.988,20.013 16.970,19.745 17.102 M10.587 24.312 C 11.173 24.678,11.773 25.030,11.920 25.095 C 12.622 25.404,13.475 25.489,15.867 25.490 C 17.702 25.490,18.959 25.425,19.454 25.303 C 19.969 25.177,20.317 24.999,21.520 24.248 C 22.107 23.882,22.595 23.604,22.604 23.630 C 22.638 23.723,22.441 24.293,22.230 24.714 C 21.896 25.378,21.381 26.135,21.078 26.407 C 20.770 26.683,20.440 26.855,20.066 26.936 C 19.905 26.970,18.385 26.984,15.867 26.975 L 11.920 26.960 11.560 26.789 C 11.361 26.695,11.064 26.491,10.898 26.336 C 10.399 25.868,9.674 24.680,9.473 24.003 C 9.368 23.653,9.364 23.553,9.453 23.607 C 9.490 23.628,10.000 23.946,10.587 24.312 " fill="#1A1C1F" stroke="none" fill-rule="evenodd"></path></svg>
